X:1
T:rue du Haut Carr
M:6/8
L:1/8
Q:115
C:(c) Greg Anderson, 9 Aug 1999
R:Jig
N:
H:The rue du Haut Carr was the street on which lived during our yearlong
H:sojourn in Talence, France.
K:D
ABc|ded cdc|B2 A F3|F2 A, DFA|G3-G2 F|GAG FGF|E2 C A,2 C|
A,CE c2 B|A2 ^G ABc|ded cdc|B2 A F2 D|FAd fba|g3-g2 a|
gec Acg|fdA D3|BGB c2 A|d2 ^c d2e||!f2 d f2 d|f2 d A2 d|f2 d fga|
g3-g2 f|gag fgf|e2 c A3|Ace ae=f|f3 d2 e|f2 d f2 d|f2 d A2 d|
f2 d fga|g3-g2 f|gag fgf|e2 d c2 B|A^GA =GFE|D3|]
